X: 1
T: COME UNDER MY PLADDIE -- JIG
R: jig
B: Ryan's Mammoth Collection of Fiddle Tunes
M: 6/8
L: 1/8
Z: Contributed 20000824200939 by John Chambers John.Chambers:weema.com
K: G
u.g \
| dBB BAB | dBB B2.g | dBB BAB | GEE E2.g \
| dBB B>AB | dBB BAG | AGA BAB | GEE E2 :|
| ud \
| gfg aga | bag fed | gfg aga | bge e>ga \
| bge afa | geg g2e | dBB BAB | GEE E2 :|
